X: 36267
T: Seamie's Cats
R: reel
M: 4/4
K: Dmajor
AG|:FA (3AAA BAFA|dABA dABA|FA (3AAA BAFA|dBAF ~E2 DE|
FA (3AAA BAFA|dABA dABc|(3ddd cd BAFD|1 EDEF D2 AG:|2 EDEF D2 de||
|:feed ef (3efe|fedB BAB2|BcdB AFAB|AFDE FAde|
feed ef e2|fedB BAB2|BcdB AFAB|1 AFEF D2 de:|2 AFEF D2 AG||

